X:1
T:Ecco ch'un altra volta
T:Ecco ch'un altra volta
T:Angelo Notari
T:Source : Prime Musiche nuove a uno, due et tre voci + BC ---London---G.Hole---1613. Editor : André Vierendeels (24/10/16).
T:Notes : Original Clefs : C1, C1 (from m39 to m 54 : C4 (Tenor), F4 Editorial accidentals above the staff
T:©
T:©
T:©
T:©
T:©
T:©
T:©
T:©
T:©
T:©
C:Angelo Notari
Z:©
%%score [ 1 2 ] 3
L:1/8
Q:1/4=120
M:4/4
K:C
V:1 treble nm="Soprano 1" snm="S 1"
V:2 treble nm="MusicXML Part"
V:3 bass nm="MusicXML Part"
V:1
 d8 | B8 | z2 d2 d2 d2 | d8- | d4 d4 | f4 e4 | f6 ed | e8 | d2 A2 B2 B2 | B4 c4- | c4 d4- | d4 c4 | %12
w: Ec-|co,|ch'un al- tra|vol-|* ta'o|piag- ge'a|pri- * *||che, u- dre- te'il|pian- to'ei|_ gra-|* vi|
 B4 e4- | e4 f4 | e6 d2- | d2 c2 f4 | e8 | z2 A2 A2 A2 | A6 A2 | B4 c4 | d8- | d4 c4 | B4 G4- | %23
w: miei, ei|_ gra-|vi miei|_ la- men-|ti,|u- dre- te|sel- ve'i|do- lo-|ro-|* si'ac-|cen- ti,|
 G4 z4 | z4 G4 | A4 B4 | c8- | c4 B4 | A8 | G2 d2 _e4- | e4 d4 | c6 e2 | c4 B4 | A4- Aeee | %34
w: _|i|do- lo-|ro-|* si'ac-|cen-|ti, el tri-|* sto|suon, el|tr- sto|suon _ de le que|
 e2 e2 e4 | d4- dAAA | A2 A2 A4 | G8 || z8 | z8 | z8 | z8 | z8 | z8 | z8 | z8 | z8 | z8 | z8 | z8 | %50
w: re- lean- ti|che, _ de le qui|re- lean- ti|che.|||||||||||||
 z8 | z8 | z8 | z8 || z8 | z8 | z8 | z8 | z8 | z8 | z2 c2 A2 G2 | A2 B2 c2 e2 | d2 c2 B2 d2 | %63
w: ||||||||||E se di|ve- ro'A- mor _|_ _ _ _|
 d2 B4 AG | ^FF d4 cB | A2 c2 A4 | G8 | z BBB B4 | A3 ^G G4- | GBcd e2 f2- | f2 ^cd d3 c- | d8 | %72
w: * qual che scin-|til- la re- hna fra|que- sta sas-|si,|ha- vran me- ce|de Del cor,|_ che de sian do ard''|_ es va- vil- la,|_|
 z2 A2 _B4- | B2 _B2 A3 A | G2 d2 e4- | e4 d4- | d4 c4 | B8 | A4 z4 | z eee e2 B2 | c8 | %81
w: ma las-|* so'a me che|val, ma las-|* so'a|_ me|che|val,|se- gia no'l cre- de|quel|
 B3 B edcB | A2 c2 fedc | B2 B2 cBAG | F2 A2 dcBA | ^G2- G/A/B/c/ A2- G/c/B/A/ | %86
w: la, che sol vor- rei ver-|me, che sol vor- rei ver-|me, che sol vor- rei ver-|me, che sol vor- rei ver-|me _ _ _ _ _ _ _ _ _|
 ^G4 z f/e/ d/c/B/A/ | B2 c/B/c/d/ B4 | c4 z2 ee | e2 de fedc | BBee e2 dc | c4 z4 | z2 dd d2 cB | %93
w: _ tran- * * * * *|* quil- * * * *|la, ne le|la- gri- me mie m'ac- qui- sta'in|fe- de, ne le la- gri- me|mie,|ne le la- gri- me|
 B2 BB B2 AB | cBAG ^FFAA | A2 G^F G2 dd | d2 cd edcB | A>G ^F>G A>B c>A | B>d c>B A>B A>G | %99
w: mie, ne le la- gri- me|mie m'ac- qii- sta fe- de, ne le|la- gri- me mie, ne le|la- gri- me mie m'ac- qui- sta|fe- * * * * * * *||
 ^F>G F>G A2 B<c | A2 G/A/B/c/ A4 | !fermata!G8 |] %102
w: ||de.|
V:2
"^Sorano 2\n  + Tenor" z8 | d8 | B8 | z2 B2 B2 B2 | B6 B2 | A4 A4- |"^S 2" A4 d4- | d2 ^cB c4 | %8
w: |Ec-|co,|ch'un al- tra|vol- ta'o|piag- ge'a|_ pri-||
 d8 | z2 G2 G2 G2 | A6 A2 | ^G4 A4- |"^S 2" A4 ^G4 | z2 c2 d4- | d2 c2 f4 | e4 d4- | d4 ^c4 | %17
w: che,|u- dre- te'il|pian- to'ei|gra- vi-|* miei,|ei gra-|* vi miei|la- men-||
 d2 ^F2 F2 F2 |"^S 2" ^F8 | ^F4 z2 E2 | ^F4 ^G4 | A8 | G4 B4 | c4 d4 |"^S2" e8 | d4 D4 | E4 A4 | %27
w: ti, u- dre- te|sel-|ve i|di- lo-|ro-|si, i|do- lo-|ro-|s'i do-|lo- ro-|
 ^F2 F2 G4- | G4 ^F4 | G2 B2 c2 d2- |"^S 2" d2 c4 B2 | c2 G2 A4- | A4 ^G4 | Ac^cc c2 B2 | %34
w: si ac- cen-||ti, el tri- *|* * sto|suon, el tri-|* sto|suon de le que re- le-|
 ^c2 d4 c2 |"^S2" d^FFF F2 E2 | ^F2 G4 F2 | G8 ||"^TENOR" z2 B2 B3 c/d/- | d2 ^F2 G4- | %40
w: an- * ti|che, de le qui re- le-|an- * ti|che.|U- drai _ _|_ tu mar|
"^T" G4 z2 d2 | d2 c2 B3 A | A4 A2 z A | A3 A A3 D | ^F3 A A3 G |"^T" B4 BA A-G/^G/ | %46
w: _ l'u-|sa- te mie fa-|ti- che, ei|pe- scial mio lan-|guir sta rà no'in-|ten- ti, sta- ran _ pie-|
 ^G3 G A2 z E | G3 E ^F4 | ^F2 G2 G4 |"^#""^#" G4 z2 FF |"^T" G2 A2 B4- | B4- B2 D2 | E8 | %53
w: to- se'a miei so-|spi- ri'ar- den-|ti, que- st'au-|re, che mi|fur gran tem-|* * po'a-|mi-|
"^SOPRANO 2" D8 || d8- | d2 BB BA B2- | B2 d4 cB | AA e4 dc | c3 d d4 | c4 z4 |"^S 2" e4 d2 c2 | %61
w: che.|E|_ se di- ver- so'A- mor|_ qual- che scin-|til- la, re- gna fra|que- sti sas-|si,|E se di-|
 c2 d2 e2 c2 | B2 A2 G2 A2 | B2 d4 cB | AA B4 AG |"^S 2" ^F2 G2 G3 F- | G8 | z8 | z8 | z8 | %70
w: ve- ro'A- mor _|_ _ _ _|* qual- che scin-|til- la, re- gna fra|que- sti sas- si,|_||||
"^S 2" z8 | z8 | z2 F2 G4 | G4 G2 ^F2 | G2 B2 c4- |"^S 2" c4 B4- | B4 A4- | A4 ^G4 | A4 z ccc | %79
w: ||ma las-|so'a me che|val, ma las-|* so'a|_ me|_ che|val, se- gia no'l|
 c6 e2 |"^S 2" F4 ^F4 | ^G8 | z2 A2 dcBA | G3 G edcB | A2 F2 fedc | %85
w: cre- de,|quel- *|la,|che sol vor- rei ver-|me, che sol vor- rei ver-|me, che sol vor- rei ver-|
"^S 2" B2- B/c/d/e/ c2- c/A/B/c/ | B4 z f/e/ d/c/B/A/ | ^G2 A/G/A/^F/ G4 | A4 z2 ^cc | %89
w: me, _ _ _ _ _ _ _ _ _|_ tran- * * * * *|* quil- * * * *|la, ne le|
 ^c2 Bc dcBA |"^S 2" ^G4 G4 | z2 AA A2 G^F | ^F4 z4 | z2 dd d2 cd |"^S 2" edcB AAdd | d2 cB B2 BB | %96
w: la- gri- me mie m'ac- qui- sta'in|fe- de,|ne le la- gri- me|mie,|ne le la- gri- me|mie m'ac- qui- sta fe- de, ne le|la- gri- me mie, ne le|
 B2 AB cBAG | ^F>G A>G F>G A>F |"^S 2" G>B A>G ^F>d c>B | A>B A>G ^F2 E/F/G/A/ | ^F2 G4 F2 | %101
w: la- gri- me mie m'ac- qui- sta|fe- * * * * * * *||||
 !fermata!G8 |] %102
w: de.|
V:3
"^BC" G,,8 | G,,8 | G,,8 | G,8 | G,8 | D,4 ^C,4 | D,8 | A,,8 | D,4 G,4 | E,4 E,4 | F,8 | E,8 | %12
 E,8 | A,,8- | A,,8 | A,,8 | A,,8 | D,4 D,4 | D,8 | D,4 C,4 | B,,8 | A,,8 | E,8- | E,4 D,4 | C,8- | %25
 C,4 B,,4 | A,,8 | D,8- | D,8 | G,,8 | G,,8 | C,8 | E,8 | A,,6 ^G,,2 | A,,8 | D,6 ^C,2 | D,8 | %37
 G,,8 || G,,8 | G,,8 | G,,8 | G,,2 A,,2 B,,2 ^C,2 | D,8 | D,4 ^C,4 | D,8 | G,,4 G,4 | E,4 ^C,4 | %47
 ^C,4 D,4 | D,4 G,,4 | G,,8 | G,,4 E,,2 F,,2 | G,,2 A,,2 B,,4 | A,,8 | D,8 || D,8 | G,,8 | G,,8 | %57
 D,2 A,,2 F,4- | F,2 E,2 G,4 | C,8 | C,4 D,2 E,2 | F,2 D,2 A,,2 A,,2 | B,,2 C,2 E,2 D,2 | %63
 G,,4 B,,2 C,2 | D,2 G,,2 B,,2 C,2 | D,2 C,2 D,4 | G,,8 | G,8 | F,4 E,4 | E,4 C,4 | %70
 A,,4 G,,2 A,,2 | D,8 | D,8 | C,4 D,4 | G,,4 C,4 | A,,4 D,4 | E,8- | E,8 | A,,8 | A,,4 ^G,,4 | %80
 A,,8 | E,8 | F,4 D,4 | E,4 C,4 |"^-natural" D,4 D,4 | E,8 | E,4 D,2 F,2 | E,8 | A,,4 A,,4 | %89
 A,4 D,4 | E,8 | A,,8 | D,8 | G,,8 | C,4 D,4 | D,4 G,,4 | G,,4 C,4 | D,8 | G,,4 D,4 | D,8 | D,8 | %101
 !fermata!G,,8 |] %102

